!!!OTL: AN DEN RHEIN AN DEN RHEIN
!!!ARE: Europa, Mitteleuropa, Deutschland
!!!SCT: B0525
!!!YEM: Copyright 1995, estate of Helmut Schaffrath.
**kern
*ICvox
*Ivox
*M6/8
*k[f#c#]
*D:
{16d
16e
=1
4f#
16f#
16g
4a
8d
=2
8b
8a
8g#
4a}
{8a
=3
4dd
8d
8.f#
16e
8d
=4
2a
8r}
{8a
=5
8b
8a
8cc#
8.ee
16dd
8a
=6
4b
16a
16g
4f#}
{8dd
=7
8cc#
8b
8g
8.f#
16g
8e
=8
2d
8r}
==
!!!AGN: Wander - Lied
!!!ONB: ESAC (Essen Associative Code) Database: BOEHME
!!!AMT: compound duple
!!!AIN: vox
!!!EED: Helmut Schaffrath
!!!EEV: 1.0
*-
